app/javascript/images/logo.svg

<?xml version="1.0" encoding="UTF-8" standalone="no"?>
<svg
   xmlns:dc="http://purl.org/dc/elements/1.1/"
   xmlns:cc="http://creativecommons.org/ns#"
   xmlns:rdf="http://www.w3.org/1999/02/22-rdf-syntax-ns#"
   xmlns:svg="http://www.w3.org/2000/svg"
   xmlns="http://www.w3.org/2000/svg"
   xmlns:sodipodi="http://sodipodi.sourceforge.net/DTD/sodipodi-0.dtd"
   xmlns:inkscape="http://www.inkscape.org/namespaces/inkscape"
   viewBox="0 0 16 16"
   xml:space="preserve"
   version="1.1"
   id="svg2"
   sodipodi:docname="cityscape.svg"
   width="16"
   height="16"><sodipodi:namedview
     pagecolor="#ffffff"
     bordercolor="#666666"
     borderopacity="1"
     objecttolerance="10"
     gridtolerance="10"
     guidetolerance="10"
     inkscape:pageopacity="0"
     inkscape:pageshadow="2"
     inkscape:window-width="640"
     inkscape:window-height="480"
     id="namedview1647"
     showgrid="false" /><metadata
     id="metadata8"><rdf:RDF><cc:Work
         rdf:about=""><dc:format>image/svg+xml</dc:format><dc:type
           rdf:resource="http://purl.org/dc/dcmitype/StillImage" /><dc:title></dc:title></cc:Work></rdf:RDF></metadata><defs
     id="defs6"><clipPath
       id="clipPath16"
       clipPathUnits="userSpaceOnUse"><path
         id="path18"
         d="M 4,36 C 1.791,36 0,34.209 0,32 V 32 4 C 0,1.791 1.791,0 4,0 v 0 h 28 c 2.209,0 4,1.791 4,4 v 0 28 c 0,2.209 -1.791,4 -4,4 v 0 z"
         inkscape:connector-curvature="0" /></clipPath><clipPath
       clipPathUnits="userSpaceOnUse"
       id="clipPath16-5"><path
         d="M 0,36 H 36 V 0 H 0 Z"
         id="path18-3"
         inkscape:connector-curvature="0" /></clipPath></defs><path
     id="path24"
     style="fill:#66757f;fill-opacity:1;fill-rule:nonzero;stroke:none;stroke-width:1.25"
     d="M 4,16.000001 V 2.818182 L 6,1.0000001 H 7 L 9,2.818182 v 13.181819 z"
     inkscape:connector-curvature="0" /><path
     id="path28"
     style="fill:#66757f;fill-opacity:1;fill-rule:nonzero;stroke:none;stroke-width:1.25"
     d="M 15,4.4615383 C 15,3.9999999 14.428444,3.9999999 14.428444,3.9999999 h -2.856889 c 0,0 -0.571555,-4.801e-4 -0.571555,0.4610769 V 16 h 4 z"
     inkscape:connector-curvature="0" /><path
     id="path32"
     style="fill:#292f33;fill-opacity:1;fill-rule:nonzero;stroke:none;stroke-width:1.25"
     d="M 12,7.45 C 12,7.0000001 11.6,7.0000001 11.6,7.0000001 H 8.4000001 c -0.4,0 -0.4,0.4499999 -0.4,0.4499999 V 16 H 12 Z"
     inkscape:connector-curvature="0" /><path
     id="path36"
     style="fill:#292f33;fill-opacity:1;fill-rule:nonzero;stroke:none;stroke-width:1.25"
     d="M 3,6.4347826 C 3,6.4347826 3,6 2.5,6 H 0 v 10 h 3 z"
     inkscape:connector-curvature="0" /><path
     id="path40"
     style="fill:#292f33;fill-opacity:1;fill-rule:nonzero;stroke:none;stroke-width:1.25"
     d="m 6.0000001,8.4705882 c 0,0 0,-0.4705883 -0.5000001,-0.4705883 h -3 c 0,0 -0.5,-4.705e-4 -0.5,0.4705883 V 16 h 4.0000001 z"
     inkscape:connector-curvature="0" /><path
     id="path44"
     style="fill:#292f33;fill-opacity:1;fill-rule:nonzero;stroke:none;stroke-width:1.25"
     d="m 12.999999,11.454544 c 0,0 0,-0.454545 0.6,-0.454545 h 2.4 v 5 h -3 z"
     inkscape:connector-curvature="0" /><path
     inkscape:connector-curvature="0"
     d="M 5.0000001,14 H 4 v -1 h 1.0000001 z"
     style="fill:#ffcc4d;fill-opacity:1;fill-rule:nonzero;stroke:none;stroke-width:1.25"
     id="path46" /><path
     inkscape:connector-curvature="0"
     d="M 5.0000001,10 H 4 V 9.0000003 h 1.0000001 z"
     style="fill:#ffcc4d;fill-opacity:1;fill-rule:nonzero;stroke:none;stroke-width:1.25"
     id="path48" /><path
     inkscape:connector-curvature="0"
     d="M 8,5 H 7 V 4 h 1 z"
     style="fill:#ffcc4d;fill-opacity:1;fill-rule:nonzero;stroke:none;stroke-width:1.25"
     id="path52" /><path
     inkscape:connector-curvature="0"
     d="M 8,7 H 7 V 6 h 1 z"
     style="fill:#ffcc4d;fill-opacity:1;fill-rule:nonzero;stroke:none;stroke-width:1.25"
     id="path54" /><path
     inkscape:connector-curvature="0"
     d="M 7,9 H 6 V 8 h 1 z"
     style="fill:#ffcc4d;fill-opacity:1;fill-rule:nonzero;stroke:none;stroke-width:1.25"
     id="path56" /><path
     inkscape:connector-curvature="0"
     d="M 11,9 H 10 V 8.0000001 h 1 z"
     style="fill:#ffcc4d;fill-opacity:1;fill-rule:nonzero;stroke:none;stroke-width:1.25000012"
     id="path58" /><path
     inkscape:connector-curvature="0"
     d="M 9.9999996,11 H 9 V 9.9999997 h 0.9999996 z"
     style="fill:#ffcc4d;fill-opacity:1;fill-rule:nonzero;stroke:none;stroke-width:1.25000012"
     id="path60" /><path
     inkscape:connector-curvature="0"
     d="M 10,13 H 9 v -1 h 1 z"
     style="fill:#ffcc4d;fill-opacity:1;fill-rule:nonzero;stroke:none;stroke-width:1.25"
     id="path62" /><path
     inkscape:connector-curvature="0"
     d="M 14,6 H 13 V 5 h 1 z"
     style="fill:#ffcc4d;fill-opacity:1;fill-rule:nonzero;stroke:none;stroke-width:1.25000012"
     id="path64" /><path
     inkscape:connector-curvature="0"
     d="m 14,8.0000002 h -1 v -1 h 1 z"
     style="fill:#ffcc4d;fill-opacity:1;fill-rule:nonzero;stroke:none;stroke-width:1.25000012"
     id="path66" /><path
     id="path1864"
     style="fill:#ffcc4d;fill-opacity:1;fill-rule:nonzero;stroke:none;stroke-width:1.25"
     d="M 4,12 H 3 v -1 h 1 z"
     inkscape:connector-curvature="0" /><path
     id="path1866"
     style="fill:#ffcc4d;fill-opacity:1;fill-rule:nonzero;stroke:none;stroke-width:1.25000012"
     d="m 13,11 h -1 v -1 h 1 z"
     inkscape:connector-curvature="0" /><path
     id="path1868"
     style="fill:#ffcc4d;fill-opacity:1;fill-rule:nonzero;stroke:none;stroke-width:1.25"
     d="M 6,6 H 5 V 5 h 1 z"
     inkscape:connector-curvature="0" /><path
     style="opacity:1;fill:none;fill-opacity:1;fill-rule:nonzero;stroke:#55b4ff;stroke-width:1;stroke-linecap:round;stroke-linejoin:round;stroke-miterlimit:4;stroke-dasharray:none;stroke-dashoffset:6;stroke-opacity:1;paint-order:stroke fill markers"
     d="m 10.5,1.5 h 4 l -4,5 h 4"
     id="path1870"
     inkscape:connector-curvature="0"
     sodipodi:nodetypes="cccc" /><path
     sodipodi:nodetypes="cccc"
     inkscape:connector-curvature="0"
     id="path1872"
     d="m 5.5,2.49995 h 3 l -3,4 h 3"
     style="opacity:1;fill:none;fill-opacity:1;fill-rule:nonzero;stroke:#55b4ff;stroke-width:1;stroke-linecap:round;stroke-linejoin:round;stroke-miterlimit:4;stroke-dasharray:none;stroke-dashoffset:6;stroke-opacity:1;paint-order:stroke fill markers" /><path
     style="opacity:1;fill:none;fill-opacity:1;fill-rule:nonzero;stroke:#55b4ff;stroke-width:1;stroke-linecap:round;stroke-linejoin:round;stroke-miterlimit:4;stroke-dasharray:none;stroke-dashoffset:6;stroke-opacity:1;paint-order:stroke fill markers"
     d="m 1.5,0.5 h 2 l -2,3 h 2"
     id="path1874"
     inkscape:connector-curvature="0"
     sodipodi:nodetypes="cccc" /></svg>

<svg version="1.1" viewBox="0 0 16 16" xmlns="http://www.w3.org/2000/svg"><path d="m4 16v-13.182l2-1.8182h1l2 1.8182v13.182z" fill="#66757f"/><path d="m15 4.4615c0-0.46154-0.57156-0.46154-0.57156-0.46154h-2.8569s-0.57156-4.801e-4 -0.57156 0.46108v11.539h4z" fill="#66757f"/><g fill="#292f33"><path d="m12 7.45c0-0.45-0.4-0.45-0.4-0.45h-3.2c-0.4 0-0.4 0.45-0.4 0.45v8.55h4z"/><path d="m3 6.4348s0-0.43478-0.5-0.43478h-2.5v10h3z"/><path d="m6 8.4706s0-0.47059-0.5-0.47059h-3s-0.5-4.705e-4 -0.5 0.47059v7.5294h4z"/><path d="m13 11.455s0-0.45454 0.6-0.45454h2.4v5h-3z"/></g><g fill="#ffcc4d"><path d="m5 14h-1v-1h1z"/><path d="m5 10h-1v-1h1z"/><path d="m8 5h-1v-1h1z"/><path d="m8 7h-1v-1h1z"/><path d="m7 9h-1v-1h1z"/><path d="m11 9h-1v-1h1z"/><path d="m10 11h-1v-1h1z"/><path d="m10 13h-1v-1h1z"/><path d="m14 6h-1v-1h1z"/><path d="m14 8h-1v-1h1z"/><path d="m4 12h-1v-1h1z"/><path d="m13 11h-1v-1h1z"/><path d="m6 6h-1v-1h1z"/></g><g fill="none" stroke="#55b4ff" stroke-dashoffset="6" stroke-linecap="round" stroke-linejoin="round"><path d="m10.5 1.5h4l-4 5h4" style="paint-order:stroke fill markers"/><path d="m5.5 2.5h3l-3 4h3" style="paint-order:stroke fill markers"/><path d="m1.5 0.5h2l-2 3h2" style="paint-order:stroke fill markers"/></g></svg>
